X:138
T:Polska fr{\aa}n Ydre
R:sl\"angpolska
H:Spelas \"aven i Gm
A:\"Osterg\"otland
Z:id:hn-sp-138
M:3/4
L:1/16
K:Dm
f4 e4 d4 | A=B^cd edeg f2e2 | d2ba g2f2 e2d2 | ^cded ^c2A2 d2e2 |
f4 e4 d4 | A=B^cd edeg f2e2 | d2ba g2f2 e2d2 |1 ^cde^c d8 :|
[2 ^cde^c d6 ag |: a2F2 F2a2 a2gf | g2E2 E2g2 g2fe |
f2ef d2ef gfed | d2^cd ed^c=B A2ag | a2F2 F2a2 a2gf |
g2E2 E2g2 g2fe | f2ef d2ef gfed |1 ^cd=B^c d6 ag :|2 ^cd=B^c d8 ||
P:variant av andra delen:
|: a2F2 F2a2 a2gf | g2E2 E2g2 g2fe | fefg afge fde^c |
d^cdf ed^c=B A2ag | a2F2 F2a2 a2gf | g2E2 E2g2 g2fe |
fefg afge fde^c |1 A^ce^c d6 ag :|2 A^ce^c d8 ||
<end>
<start>
